avogadro/qtplugins/templatetool/centers/4-tet.svg

<svg xmlns="http://www.w3.org/2000/svg" xmlns:xlink="http://www.w3.org/1999/xlink" width="31" height="31" viewBox="0 0 31 31" style="background-color:#ffffff00" version="1.1"><path fill="#000" stroke="none" d="M 3898.41,2777.31 L 3892.39,2780.07 L 3886.38,2776.6 L 3886.38,2492.1 L 3898.41,2492.1 L 3898.41,2777.31 Z" transform="matrix(0.05 0 0 0.05 -180 -122)"/><path fill="#000" stroke="none" d="M 3646.13,2929.26 L 3640.11,2918.85 L 3886.38,2776.6 L 3892.39,2780.07 L 3891.07,2787.78 L 3646.13,2929.26 Z" transform="matrix(0.05 0 0 0.05 -180 -122)"/><path fill="#000" stroke="none" d="M 4117.21,2962.47 L 4074.79,3004.89 L 3891.07,2787.78 L 3892.39,2780.07 L 3898.41,2777.31 L 4117.21,2962.47 Z" transform="matrix(0.05 0 0 0.05 -180 -122)"/><path fill="#000" stroke="none" d="M 4178.64,2825.95 L 4163.06,2883.89 L 4151.76,2879.6 L 4166.7,2823.99 L 4178.64,2825.95 Z" transform="matrix(0.05 0 0 0.05 -180 -122)"/><path fill="#000" stroke="none" d="M 4122.53,2816.76 L 4109.92,2863.71 L 4098.61,2859.42 L 4110.6,2814.81 L 4122.53,2816.76 Z" transform="matrix(0.05 0 0 0.05 -180 -122)"/><path fill="#000" stroke="none" d="M 4066.43,2807.58 L 4056.77,2843.53 L 4045.47,2839.24 L 4054.5,2805.62 L 4066.43,2807.58 Z" transform="matrix(0.05 0 0 0.05 -180 -122)"/><path fill="#000" stroke="none" d="M 4010.33,2798.39 L 4003.62,2823.35 L 3992.32,2819.05 L 3998.4,2796.44 L 4010.33,2798.39 Z" transform="matrix(0.05 0 0 0.05 -180 -122)"/><path fill="#000" stroke="none" d="M 3954.23,2789.21 L 3950.48,2803.17 L 3939.17,2798.87 L 3942.3,2787.26 L 3954.23,2789.21 Z" transform="matrix(0.05 0 0 0.05 -180 -122)"/><path fill="#108080" stroke="none" d="M 3762.81,2780.07 A 129.586,129.586 0 1 0 4021.98,2780.07A 129.586,129.586 0 1 0 3762.81,2780.07Z" transform="matrix(0.05 0 0 0.05 -180 -122)"/><path fill="#1e8787" stroke="none" d="M 3764.31,2778.05 A 126.059,126.059 0 1 0 4016.43,2778.05A 126.059,126.059 0 1 0 3764.31,2778.05Z" transform="matrix(0.05 0 0 0.05 -180 -122)"/><path fill="#2c8f8f" stroke="none" d="M 3765.81,2776.02 A 122.531,122.531 0 1 0 4010.88,2776.02A 122.531,122.531 0 1 0 3765.81,2776.02Z" transform="matrix(0.05 0 0 0.05 -180 -122)"/><path fill="#3a9696" stroke="none" d="M 3767.32,2774 A 119.004,119.004 0 1 0 4005.32,2774A 119.004,119.004 0 1 0 3767.32,2774Z" transform="matrix(0.05 0 0 0.05 -180 -122)"/><path fill="#489d9d" stroke="none" d="M 3768.82,2771.97 A 115.477,115.477 0 1 0 3999.77,2771.97A 115.477,115.477 0 1 0 3768.82,2771.97Z" transform="matrix(0.05 0 0 0.05 -180 -122)"/><path fill="#54a4a4" stroke="none" d="M 3770.32,2769.95 A 111.949,111.949 0 1 0 3994.22,2769.95A 111.949,111.949 0 1 0 3770.32,2769.95Z" transform="matrix(0.05 0 0 0.05 -180 -122)"/><path fill="#61abab" stroke="none" d="M 3771.82,2767.92 A 108.422,108.422 0 1 0 3988.67,2767.92A 108.422,108.422 0 1 0 3771.82,2767.92Z" transform="matrix(0.05 0 0 0.05 -180 -122)"/><path fill="#6db1b1" stroke="none" d="M 3773.33,2765.9 A 104.895,104.895 0 1 0 3983.11,2765.9A 104.895,104.895 0 1 0 3773.33,2765.9Z" transform="matrix(0.05 0 0 0.05 -180 -122)"/><path fill="#78b7b7" stroke="none" d="M 3774.83,2763.87 A 101.367,101.367 0 1 0 3977.56,2763.87A 101.367,101.367 0 1 0 3774.83,2763.87Z" transform="matrix(0.05 0 0 0.05 -180 -122)"/><path fill="#83bdbd" stroke="none" d="M 3776.33,2761.85 A 97.8398,97.8398 0 1 0 3972.01,2761.85A 97.8398,97.8398 0 1 0 3776.33,2761.85Z" transform="matrix(0.05 0 0 0.05 -180 -122)"/><path fill="#8ec2c2" stroke="none" d="M 3777.83,2759.82 A 94.3125,94.3125 0 1 0 3966.46,2759.82A 94.3125,94.3125 0 1 0 3777.83,2759.82Z" transform="matrix(0.05 0 0 0.05 -180 -122)"/><path fill="#98c8c8" stroke="none" d="M 3779.34,2757.8 A 90.7852,90.7852 0 1 0 3960.91,2757.8A 90.7852,90.7852 0 1 0 3779.34,2757.8Z" transform="matrix(0.05 0 0 0.05 -180 -122)"/><path fill="#a1cdcd" stroke="none" d="M 3780.84,2755.77 A 87.2578,87.2578 0 1 0 3955.35,2755.77A 87.2578,87.2578 0 1 0 3780.84,2755.77Z" transform="matrix(0.05 0 0 0.05 -180 -122)"/><path fill="#aad2d2" stroke="none" d="M 3782.34,2753.75 A 83.7305,83.7305 0 1 0 3949.8,2753.75A 83.7305,83.7305 0 1 0 3782.34,2753.75Z" transform="matrix(0.05 0 0 0.05 -180 -122)"/><path fill="#b3d6d6" stroke="none" d="M 3783.84,2751.72 A 80.2031,80.2031 0 1 0 3944.25,2751.72A 80.2031,80.2031 0 1 0 3783.84,2751.72Z" transform="matrix(0.05 0 0 0.05 -180 -122)"/><path fill="#bbdbdb" stroke="none" d="M 3785.35,2749.7 A 76.6758,76.6758 0 1 0 3938.7,2749.7A 76.6758,76.6758 0 1 0 3785.35,2749.7Z" transform="matrix(0.05 0 0 0.05 -180 -122)"/><path fill="#c3dfdf" stroke="none" d="M 3786.85,2747.67 A 73.1484,73.1484 0 1 0 3933.15,2747.67A 73.1484,73.1484 0 1 0 3786.85,2747.67Z" transform="matrix(0.05 0 0 0.05 -180 -122)"/><path fill="#cae3e3" stroke="none" d="M 3788.35,2745.65 A 69.6211,69.6211 0 1 0 3927.59,2745.65A 69.6211,69.6211 0 1 0 3788.35,2745.65Z" transform="matrix(0.05 0 0 0.05 -180 -122)"/><path fill="#d1e6e6" stroke="none" d="M 3789.85,2743.62 A 66.0938,66.0938 0 1 0 3922.04,2743.62A 66.0938,66.0938 0 1 0 3789.85,2743.62Z" transform="matrix(0.05 0 0 0.05 -180 -122)"/><path fill="#d7eaea" stroke="none" d="M 3791.36,2741.6 A 62.5664,62.5664 0 1 0 3916.49,2741.6A 62.5664,62.5664 0 1 0 3791.36,2741.6Z" transform="matrix(0.05 0 0 0.05 -180 -122)"/><path fill="#ddeded" stroke="none" d="M 3792.86,2739.58 A 59.0391,59.0391 0 1 0 3910.94,2739.58A 59.0391,59.0391 0 1 0 3792.86,2739.58Z" transform="matrix(0.05 0 0 0.05 -180 -122)"/><path fill="#e2efef" stroke="none" d="M 3794.36,2737.55 A 55.5117,55.5117 0 1 0 3905.38,2737.55A 55.5117,55.5117 0 1 0 3794.36,2737.55Z" transform="matrix(0.05 0 0 0.05 -180 -122)"/><path fill="#e7f2f2" stroke="none" d="M 3795.86,2735.53 A 51.9844,51.9844 0 1 0 3899.83,2735.53A 51.9844,51.9844 0 1 0 3795.86,2735.53Z" transform="matrix(0.05 0 0 0.05 -180 -122)"/><path fill="#ecf4f4" stroke="none" d="M 3797.37,2733.5 A 48.457,48.457 0 1 0 3894.28,2733.5A 48.457,48.457 0 1 0 3797.37,2733.5Z" transform="matrix(0.05 0 0 0.05 -180 -122)"/><path fill="#f0f7f7" stroke="none" d="M 3798.87,2731.48 A 44.9297,44.9297 0 1 0 3888.73,2731.48A 44.9297,44.9297 0 1 0 3798.87,2731.48Z" transform="matrix(0.05 0 0 0.05 -180 -122)"/><path fill="#f3f8f8" stroke="none" d="M 3800.37,2729.45 A 41.4023,41.4023 0 1 0 3883.18,2729.45A 41.4023,41.4023 0 1 0 3800.37,2729.45Z" transform="matrix(0.05 0 0 0.05 -180 -122)"/><path fill="#f6fafa" stroke="none" d="M 3801.87,2727.43 A 37.875,37.875 0 1 0 3877.62,2727.43A 37.875,37.875 0 1 0 3801.87,2727.43Z" transform="matrix(0.05 0 0 0.05 -180 -122)"/><path fill="#f9fbfb" stroke="none" d="M 3803.38,2725.4 A 34.3477,34.3477 0 1 0 3872.07,2725.4A 34.3477,34.3477 0 1 0 3803.38,2725.4Z" transform="matrix(0.05 0 0 0.05 -180 -122)"/><path fill="#fbfdfd" stroke="none" d="M 3804.88,2723.38 A 30.8203,30.8203 0 1 0 3866.52,2723.38A 30.8203,30.8203 0 1 0 3804.88,2723.38Z" transform="matrix(0.05 0 0 0.05 -180 -122)"/><path fill="#fcfdfd" stroke="none" d="M 3806.38,2721.35 A 27.293,27.293 0 1 0 3860.97,2721.35A 27.293,27.293 0 1 0 3806.38,2721.35Z" transform="matrix(0.05 0 0 0.05 -180 -122)"/><path fill="#fefefe" stroke="none" d="M 3807.88,2719.33 A 23.7656,23.7656 0 1 0 3855.42,2719.33A 23.7656,23.7656 0 1 0 3807.88,2719.33Z" transform="matrix(0.05 0 0 0.05 -180 -122)"/><path fill="#fefefe" stroke="none" d="M 3809.39,2717.3 A 20.2383,20.2383 0 1 0 3849.86,2717.3A 20.2383,20.2383 0 1 0 3809.39,2717.3Z" transform="matrix(0.05 0 0 0.05 -180 -122)"/><path fill="none" stroke="#108080" stroke-width="12" d="M 3762.81,2780.07 A 129.586,129.586 0 1 0 4021.98,2780.07A 129.586,129.586 0 1 0 3762.81,2780.07Z" transform="matrix(0.05 0 0 0.05 -180 -122)"/></svg>

<svg height="31" viewBox="0 0 31 31" width="31" xmlns="http://www.w3.org/2000/svg"><g transform="matrix(.05 0 0 .05 -180 -122)"><path d="m3898.41 2777.31-6.02 2.76-6.01-3.47v-284.5h12.03z"/><path d="m3646.13 2929.26-6.02-10.41 246.27-142.25 6.01 3.47-1.32 7.71z"/><path d="m4117.21 2962.47-42.42 42.42-183.72-217.11 1.32-7.71 6.02-2.76z"/><path d="m4178.64 2825.95-15.58 57.94-11.3-4.29 14.94-55.61z"/><path d="m4122.53 2816.76-12.61 46.95-11.31-4.29 11.99-44.61z"/><path d="m4066.43 2807.58-9.66 35.95-11.3-4.29 9.03-33.62z"/><path d="m4010.33 2798.39-6.71 24.96-11.3-4.3 6.08-22.61z"/><path d="m3954.23 2789.21-3.75 13.96-11.31-4.3 3.13-11.61z"/><path d="m3762.81 2780.07a129.586 129.586 0 1 0 259.17 0 129.586 129.586 0 1 0 -259.17 0z" fill="#108080"/><path d="m3764.31 2778.05a126.059 126.059 0 1 0 252.12 0 126.059 126.059 0 1 0 -252.12 0z" fill="#1e8787"/><path d="m3765.81 2776.02a122.531 122.531 0 1 0 245.07 0 122.531 122.531 0 1 0 -245.07 0z" fill="#2c8f8f"/><path d="m3767.32 2774a119.004 119.004 0 1 0 238 0 119.004 119.004 0 1 0 -238 0z" fill="#3a9696"/><path d="m3768.82 2771.97a115.477 115.477 0 1 0 230.95 0 115.477 115.477 0 1 0 -230.95 0z" fill="#489d9d"/><path d="m3770.32 2769.95a111.949 111.949 0 1 0 223.9 0 111.949 111.949 0 1 0 -223.9 0z" fill="#54a4a4"/><path d="m3771.82 2767.92a108.422 108.422 0 1 0 216.85 0 108.422 108.422 0 1 0 -216.85 0z" fill="#61abab"/><path d="m3773.33 2765.9a104.895 104.895 0 1 0 209.78 0 104.895 104.895 0 1 0 -209.78 0z" fill="#6db1b1"/><path d="m3774.83 2763.87a101.367 101.367 0 1 0 202.73 0 101.367 101.367 0 1 0 -202.73 0z" fill="#78b7b7"/><path d="m3776.33 2761.85a97.84 97.84 0 1 0 195.68 0 97.84 97.84 0 1 0 -195.68 0z" fill="#83bdbd"/><path d="m3777.83 2759.82a94.313 94.313 0 1 0 188.63 0 94.313 94.313 0 1 0 -188.63 0z" fill="#8ec2c2"/><path d="m3779.34 2757.8a90.785 90.785 0 1 0 181.57 0 90.785 90.785 0 1 0 -181.57 0z" fill="#98c8c8"/><path d="m3780.84 2755.77a87.258 87.258 0 1 0 174.51 0 87.258 87.258 0 1 0 -174.51 0z" fill="#a1cdcd"/><path d="m3782.34 2753.75a83.731 83.731 0 1 0 167.46 0 83.731 83.731 0 1 0 -167.46 0z" fill="#aad2d2"/><path d="m3783.84 2751.72a80.203 80.203 0 1 0 160.41 0 80.203 80.203 0 1 0 -160.41 0z" fill="#b3d6d6"/><path d="m3785.35 2749.7a76.676 76.676 0 1 0 153.35 0 76.676 76.676 0 1 0 -153.35 0z" fill="#bbdbdb"/><path d="m3786.85 2747.67a73.148 73.148 0 1 0 146.3 0 73.148 73.148 0 1 0 -146.3 0z" fill="#c3dfdf"/><path d="m3788.35 2745.65a69.621 69.621 0 1 0 139.24 0 69.621 69.621 0 1 0 -139.24 0z" fill="#cae3e3"/><path d="m3789.85 2743.62a66.094 66.094 0 1 0 132.19 0 66.094 66.094 0 1 0 -132.19 0z" fill="#d1e6e6"/><path d="m3791.36 2741.6a62.566 62.566 0 1 0 125.13 0 62.566 62.566 0 1 0 -125.13 0z" fill="#d7eaea"/><path d="m3792.86 2739.58a59.039 59.039 0 1 0 118.08 0 59.039 59.039 0 1 0 -118.08 0z" fill="#ddeded"/><path d="m3794.36 2737.55a55.512 55.512 0 1 0 111.02 0 55.512 55.512 0 1 0 -111.02 0z" fill="#e2efef"/><path d="m3795.86 2735.53a51.984 51.984 0 1 0 103.97 0 51.984 51.984 0 1 0 -103.97 0z" fill="#e7f2f2"/><path d="m3797.37 2733.5a48.457 48.457 0 1 0 96.91 0 48.457 48.457 0 1 0 -96.91 0z" fill="#ecf4f4"/><path d="m3798.87 2731.48a44.93 44.93 0 1 0 89.86 0 44.93 44.93 0 1 0 -89.86 0z" fill="#f0f7f7"/><path d="m3800.37 2729.45a41.402 41.402 0 1 0 82.81 0 41.402 41.402 0 1 0 -82.81 0z" fill="#f3f8f8"/><path d="m3801.87 2727.43a37.875 37.875 0 1 0 75.75 0 37.875 37.875 0 1 0 -75.75 0z" fill="#f6fafa"/><path d="m3803.38 2725.4a34.348 34.348 0 1 0 68.69 0 34.348 34.348 0 1 0 -68.69 0z" fill="#f9fbfb"/><path d="m3804.88 2723.38a30.82 30.82 0 1 0 61.64 0 30.82 30.82 0 1 0 -61.64 0z" fill="#fbfdfd"/><path d="m3806.38 2721.35a27.293 27.293 0 1 0 54.59 0 27.293 27.293 0 1 0 -54.59 0z" fill="#fcfdfd"/><path d="m3807.88 2719.33a23.766 23.766 0 1 0 47.54 0 23.766 23.766 0 1 0 -47.54 0z" fill="#fefefe"/><path d="m3809.39 2717.3a20.238 20.238 0 1 0 40.47 0 20.238 20.238 0 1 0 -40.47 0z" fill="#fefefe"/><path d="m3762.81 2780.07a129.586 129.586 0 1 0 259.17 0 129.586 129.586 0 1 0 -259.17 0z" fill="none" stroke="#108080" stroke-width="12"/></g></svg>
